X:1
T:Souvent amour
T:Guillaume le Heurteur
T:Source : Second livre contenant 31 chansons eslevées à 4 parties---Paris---P.Attaignant---1535. Editor : André Vierendeels (03/01/18).
T:Souvent amour
T:©
T:©
T:©
T:©
C:Guillaume le Heurteur
Z:©
%%score [ 1 [ 2 3 ] 4 ]
L:1/8
Q:1/4=120
M:2/2
K:F
V:1 treble nm="Soprano" snm="S"
V:2 treble-8 nm="Tenor 1" snm="T 1"
V:3 treble-8 nm="Tenor 2" snm="T 2"
V:4 bass nm="Bass" snm="B"
V:1
 z8 | z8 | z8 | z4 c4 | c2 c2 A4 | z2 A2 A3 G | A2 B2 A2 G2- | G2 F4 E2 | F4 z2 A2 | A2 A2 c3 B | %10
w: |||Sou-|vent a- mour|me li- *|* vre grant tour-||ment, mais|ie con- gnois _|
 AG A4 GF | E4 z2 A2 | A4 z2 A2 | A4 z2 A2 | B2 G2 A4 | z2 F2 F2 F2 | E4 z2 E2 | F2 G2 A2 c2- | %18
w: _ _ _ _ _|* qu'il|est, qu'il|est trai-|tre par- faict|par qui ie|veulx dis-|si- mu- ler _|
 cBAG A2 B2- | B2 A4 G2 | A2 GF G4 | A4 z4 | z8 | z8 | c4 c2 c2 | A4 z2 A2 | A3 G A2 B2 | %27
w: _ _ _ _ _ _||* * * son|faict,|||pour en a-|voir meil-|leur _ _ con-|
 A2 G4 F2- | FE/D/ E2 F4 | z8 | z8 | z8 | c4 c2 c2 | A4 z2 A2 | A3 G A2 B2 | A2 G4 F2- | %36
w: ten- * *|* * * te- ment,||||pour en a-|voir meil-|leur _ _ con-|ten- * *|
"^-natural" F2 E2 F4- | F8 |] %38
w: * te ment.|_|
V:2
 z8 | z4 f4 | f2 f2 d3 e | fg f4 e2 | f3 e/d/ cBAG | F2 f2 f2 e2 | f2 d2 e4- | e2 dc c4 | %8
w: |Sou-|vent a- mour _|_ _ _ _||* me li- vre|grant tour- *|* * * ment,|
 z2 c2 d2 d2 | f3 e/d/ cBAG | F4 z2 F2 | G2 A3 B c2 | A4 z2 f2 | f6 f2 |"^b" f2 e2 c2 c2 | %15
w: mais ie con-|gnois, _ _ _ _ _ _|_ mais|ie con- * *|gnois qu'il|est trai-|tre par- faict par|
 d2 d2 c4 | z2 c2 B2 c2 | d2 B2 A2 e2 | f3 d e2 f2 | d2 e2 f2 ed | c2 f4 e2 | f4 z4 | f4 f2 f2 | %23
w: qui ie veulx|dis- si- mi-|ler son faict, dis-|si- * * mu-|ler _ _ _ _|_ _ son|faict,|pour en a-|
 d3 e fg f2- | f2 e2 f3 e/d/ | cBAG F2 f2 | f2 e2 f2 d2 |"^b" e6 dc | c8 | z8 | f4 f2 f2 | %31
w: voir _ _ _ _|_ _ _ _ _|* * * * * meil-|leur con- ten- *|* te- *|ment,||pour en a-|
 d3 e fg f2- | f2 e2 f3 e/d/ | cBAG F2 f2 | f2 e2 f2 d2 |"^b" e6 dc | c8- | c8 |] %38
w: voir _ _ _ _|_ _ _ _ _|* * * * * meil-|leur con- ten- *|* te- *|ment.|_|
V:3
 c4 c2 c2 | A4 z2 A2 | A3 G A2 B2 | A2 GF G2 G2 | F4 z2 A2 | A2 FG AB c2- | c2 B2 c4 | B2 A2 G4 | %8
w: Sou- vent a-|mour me|li- * * vre|grant _ _ _ tour-|ment, me|li- * * * * *|* vre grant|_ _ tour-|
 F8 | z8 | z2 A2 A2 A2 | c3 B AGFE | FGAB c4 | z2 A2 B2 c2 | d2 B2 A4 | z2 A2 A2 A2 | G8 | %17
w: ment,||mais ie con-|gnois _ _ _ _ _|_ _ _ _ _|qu'il est trai-|tre par- faict|par qui ie|veulx|
 z2 E2 F2 G2 | A3 B c2 d2- | d2 c2 B4 |"^b" A4 z2 c2 |"^-natural" c2 c2 A4 | z2 A2 A3 G | %23
w: dis- si- mu-|ler _ _ son-||faict, pour|en a- voir,|meil- leur _|
 A2 B2 A2 GF | G2 G2 F4 | z2 A2 A2 FG | AB c4 B2 | c4 B2 A2 | G4 F2 c2 | c2 c2 A4 | z2 A2 A3 G | %31
w: _ con- ten- * *|* te- ment,|mei- leur con- *||ten- * *|te- ment, pour|en a- voir,|mei- leur _|
 A2 B2 A2 GF | G2 G2 F4 | z2 A2 A2 FG | AB c4 B2 | c4 B2 A2 | G4 F4- | F8 |] %38
w: _ con- ten- * *|* te- ment,|meil- leur con- *||ten- * *|te- ment.|_|
V:4
 z4 F,4 | F,2 F,2 D,3 E, | F,G, F,3 E,D,C, |"^-natural" D,4 C,4 | z2 F,2 F,2 F,2 | D,4 z2 C,2 | %6
w: Sou-|vent a- mour _|_ _ _ _ _ _||sou- vent a-|mour me|
 F,2 G,2 C,3 D, |"^b" E,2 F,2 C,4 | F,8 | z4 z2 C,2 | D,2 D,2 F,3 E,/D,/ | C,B,,A,,G,, F,,4 | %12
w: li- vre grant _|_ _ tour-|ment,|mais|ie con gnois _ _|_ _ _ _ _|
 z2 F,2 F,4 | z2 F,2 B,,2 F,2 |"^b" D,2 E,2 F,4 | z2 D,2 F,2 F,2 | C,4 z2 C,2 | B,,2 G,,2 D,2 C,2 | %18
w: qu'il est,|qu'il est tra-|tre par- fait|par qui ie|veulx dis-|si- mu- ler son|
 F,,4 z2 B,,2 | B,,2 C,2 D,2 E,2 |"^b" F,3 E,/D,/ C,4 | F,4 F,2 F,2 | D,3 E, F,G, F,2- | %23
w: faict dis-|si- mu- ler son|faict, _ _ _|pour en a-|voir _ _ _ _|
 F,E,D,C, D,4 | C,4 z2 F,2 | F,2 F,2 D,4 | z2 C,2 F,2 G,2 |"^b" C,3 D, E,2 F,2 | C,4 F,,4 | %29
w: _ _ _ _ _|* pour|en a- voir|meil- leur con|ten- * * *|te- ment,|
 F,4 F,2 F,2 | D,3 E, F,G, F,2- | F,E,D,C, D,4 | C,4 z2 F,2 | F,2 F,2 D,4 | z2 C,2 F,2 G,2 | %35
w: pour en a-|voir _ _ _ _|_ _ _ _ _|* pour|en a- voir|meil- leur con-|
"^b" C,3 D, E,2 F,2 | C,4 F,,4- | F,,8 |] %38
w: ten- * * *|te- ment.|_|

